X: 13051
T: Fingerless Gloves, The
R: reel
M: 4/4
K: Gmajor
|:AB|d2AB AGED|~E3D EGAG|B2AB AGEG|egdG BAGB|
d2AB AGED|~E3D EGAG|B2AB AGEG|DEGA E2:|
|:GA|B2eB gBeB|dedB AGEG|B2AB AGEG|egdG BAGA|
B2eB gBeB|dedB AGEG|B2AB AGEG|DEGA E2:|

